humanity-icon-theme/Humanity/actions/24/system-log-out.svg

<?xml version="1.0" encoding="UTF-8" standalone="no"?>
<!-- Created with Inkscape (http://www.inkscape.org/) -->

<svg
   xmlns:svg="http://www.w3.org/2000/svg"
   xmlns="http://www.w3.org/2000/svg"
   xmlns:xlink="http://www.w3.org/1999/xlink"
   version="1.0"
   width="24"
   height="24"
   id="svg11300">
  <defs
     id="defs3">
    <linearGradient
       id="linearGradient3785">
      <stop
         id="stop3787"
         style="stop-color:#b8b8b8;stop-opacity:1"
         offset="0" />
      <stop
         id="stop3789"
         style="stop-color:#878787;stop-opacity:1"
         offset="1" />
    </linearGradient>
    <linearGradient
       id="linearGradient6954">
      <stop
         id="stop6960"
         style="stop-color:#f5f5f5;stop-opacity:1"
         offset="0" />
      <stop
         id="stop6962"
         style="stop-color:#d2d2d2;stop-opacity:1"
         offset="1" />
    </linearGradient>
    <linearGradient
       id="linearGradient3341">
      <stop
         id="stop3343"
         style="stop-color:white;stop-opacity:1"
         offset="0" />
      <stop
         id="stop3345"
         style="stop-color:white;stop-opacity:0"
         offset="1" />
    </linearGradient>
    <linearGradient
       id="linearGradient5060">
      <stop
         id="stop5062"
         style="stop-color:black;stop-opacity:1"
         offset="0" />
      <stop
         id="stop5064"
         style="stop-color:black;stop-opacity:0"
         offset="1" />
    </linearGradient>
    <radialGradient
       cx="32"
       cy="41.5"
       r="21"
       fx="32"
       fy="41.5"
       id="radialGradient2887"
       xlink:href="#linearGradient5060"
       gradientUnits="userSpaceOnUse"
       gradientTransform="matrix(0.45238095,0,0,0.14285715,0.02380949,15.071429)" />
    <radialGradient
       cx="24.999998"
       cy="28.659998"
       r="16"
       fx="24.999998"
       fy="28.659998"
       id="radialGradient2890"
       xlink:href="#linearGradient6954"
       gradientUnits="userSpaceOnUse"
       gradientTransform="matrix(0.67742373,0,0,0.19285627,-5.0162555,9.9977318)" />
    <linearGradient
       x1="30"
       y1="25.084745"
       x2="30"
       y2="45"
       id="linearGradient2894"
       xlink:href="#linearGradient3785"
       gradientUnits="userSpaceOnUse"
       gradientTransform="matrix(0.51613236,0,0,0.51667107,-0.98397254,-0.49180897)" />
    <linearGradient
       x1="29.996229"
       y1="21.440447"
       x2="29.996229"
       y2="43.531425"
       id="linearGradient2900"
       xlink:href="#linearGradient3341"
       gradientUnits="userSpaceOnUse"
       gradientTransform="matrix(0.51613236,0,0,0.51667107,-0.98397254,-0.49180897)" />
    <radialGradient
       cx="26.375898"
       cy="12.31301"
       r="8"
       fx="26.375898"
       fy="12.31301"
       id="radialGradient2902"
       xlink:href="#linearGradient6954"
       gradientUnits="userSpaceOnUse"
       gradientTransform="matrix(0.86552039,-0.07102871,0.06760608,0.84907396,-11.038912,-4.204803)" />
    <linearGradient
       x1="30"
       y1="5"
       x2="30"
       y2="44.678879"
       id="linearGradient2904"
       xlink:href="#linearGradient3785"
       gradientUnits="userSpaceOnUse"
       gradientTransform="matrix(0.52770326,0,0,0.53573244,-1.3310981,-1.4043014)" />
    <linearGradient
       x1="22"
       y1="39"
       x2="17"
       y2="37.4375"
       id="linearGradient2906"
       xlink:href="#linearGradient5060"
       gradientUnits="userSpaceOnUse"
       gradientTransform="matrix(0.74999995,0,0,0.43478262,-5.1276295,2.9173914)" />
    <radialGradient
       cx="30"
       cy="33.1875"
       r="4.6875"
       fx="30"
       fy="33.1875"
       id="radialGradient2908"
       xlink:href="#linearGradient5060"
       gradientUnits="userSpaceOnUse"
       gradientTransform="matrix(0.81491924,-3.8844793e-7,1.136461e-7,0.25340272,-9.9475804,6.5902095)" />
    <linearGradient
       x1="22"
       y1="39"
       x2="17"
       y2="37.4375"
       id="linearGradient2910"
       xlink:href="#linearGradient5060"
       gradientUnits="userSpaceOnUse"
       gradientTransform="matrix(-0.74999995,0,0,0.43478262,34.15,2.9173914)" />
    <linearGradient
       x1="30.00001"
       y1="6.333993"
       x2="30.00001"
       y2="24.913183"
       id="linearGradient2912"
       xlink:href="#linearGradient3341"
       gradientUnits="userSpaceOnUse"
       gradientTransform="matrix(0.52770326,0,0,0.53573244,-1.3310981,-1.4043014)" />
    <linearGradient
       id="linearGradient5432">
      <stop
         id="stop5434"
         style="stop-color:#a65612;stop-opacity:1"
         offset="0" />
      <stop
         id="stop5436"
         style="stop-color:#a65612;stop-opacity:0"
         offset="1" />
    </linearGradient>
    <linearGradient
       id="linearGradient3222">
      <stop
         id="stop3224"
         style="stop-color:#eda606;stop-opacity:1"
         offset="0" />
      <stop
         id="stop3226"
         style="stop-color:#efb220;stop-opacity:1"
         offset="0.36119571" />
      <stop
         id="stop3228"
         style="stop-color:#f1be3b;stop-opacity:0"
         offset="1" />
    </linearGradient>
    <linearGradient
       x1="5.6373582"
       y1="25.809036"
       x2="64.197998"
       y2="25.809036"
       id="linearGradient3096"
       xlink:href="#linearGradient3222"
       gradientUnits="userSpaceOnUse"
       gradientTransform="matrix(0.28070269,0,0,0.26388582,0.48599861,41.434644)" />
    <linearGradient
       x1="40.808029"
       y1="44.845047"
       x2="40.808029"
       y2="27.833984"
       id="linearGradient3098"
       xlink:href="#linearGradient5432"
       gradientUnits="userSpaceOnUse"
       gradientTransform="matrix(0,-0.52411419,-0.55751482,0,32.735771,69.1272)" />
    <linearGradient
       x1="3.8877637"
       y1="26.022909"
       x2="-8.7979088"
       y2="26.022909"
       id="linearGradient3100"
       xlink:href="#linearGradient3341"
       gradientUnits="userSpaceOnUse"
       gradientTransform="matrix(-0.28407333,0,0,0.25139625,14.357652,41.001558)" />
  </defs>
  <g
     transform="translate(-4,-1)"
     id="g3758">
    <path
       d="M 24,21 A 9.5,3 0 0 1 5,21 9.5,3 0 1 1 24,21 z"
       id="path3823"
       style="opacity:0.8;fill:url(#radialGradient2887);fill-opacity:1;stroke:none" />
    <path
       d="m 12.177403,10.099947 c 0.23753,1.124653 0.370116,1.975373 0.177421,3.100026 -1.502303,1.247697 -5.3445034,1.80835 -5.3387447,3.100025 l -0.5161321,3.875036 c 0,1.284073 3.5817448,2.325019 8.0000528,2.325019 4.418307,0 8.000053,-1.040946 8.000053,-2.325019 l -0.516134,-3.875036 c -0.0061,-1.105498 -3.870993,-1.808346 -5.354873,-3.100025 -0.126751,-1.043848 -0.02586,-2.056174 0.193549,-3.100026 l -4.645192,0 z"
       id="path3766"
       style="fill:url(#radialGradient2890);fill-opacity:1;stroke:url(#linearGradient2894);stroke-width:0.99989432;stroke-miterlimit:4;stroke-opacity:1;stroke-dasharray:none" />
    <path
       d="m 13.21875,11.09375 c 0.08722,0.856711 0.3354,1.801007 -0.04818,2.615857 -0.642554,0.728465 -1.594602,1.093826 -2.46738,1.472715 C 9.3226847,15.510467 7.7137266,16 7.9252179,16.998373 7.7834779,18.061416 7.641739,19.124458 7.5,20.1875 c 0.3063993,0.160613 1.0809439,0.584904 1.625,0.6875 2.520767,0.666947 5.16785,0.725367 7.754874,0.519516 1.511711,-0.166212 3.088649,-0.352665 4.432626,-1.113266 0.335436,-0.07362 0.107122,-0.316411 0.114936,-0.654915 -0.132062,-1.021278 -0.264124,-2.042557 -0.396186,-3.063835 -0.587648,-0.5027 -1.391296,-0.753519 -2.106391,-1.064577 -1.082782,-0.447299 -2.251468,-0.853003 -3.086912,-1.707994 -0.391617,-0.689558 -0.161473,-1.538743 -0.107324,-2.28649 0.259681,-0.52835 -0.223399,-0.401903 -0.552932,-0.409689 -0.652981,0 -1.305961,0 -1.958941,0 z"
       id="path3742"
       style="fill:none;stroke:url(#linearGradient2900);stroke-width:0.99989432;stroke-miterlimit:4;stroke-opacity:1" />
    <path
       d="m 14.5,1.5422262 c -2.185818,0 -3.957774,1.67899 -3.957774,3.7501272 0.01713,0.7664876 0.08155,1.6770462 0.527701,3.750127 0.263852,0.8035986 2.617283,2.9465296 2.638517,3.2143946 0.511701,0.267865 1.319258,0.267865 1.846964,0 0,-0.267865 2.110813,-2.410796 2.374664,-3.2143946 0.502046,-2.1545496 0.500773,-2.9465283 0.527702,-3.750127 0,-2.0711372 -1.771956,-3.7501272 -3.957774,-3.7501272 z"
       id="path3764"
       style="fill:url(#radialGradient2902);fill-opacity:1;stroke:url(#linearGradient2904);stroke-width:1.08445191;stroke-miterlimit:4;stroke-opacity:1;stroke-dasharray:none" />
    <path
       d="M 10.62237,21.7 C 8.8506083,20.838176 9.6954668,18.924844 9.8723695,17.7 9.1223696,18.569566 9.5000001,21 8,21 c 1,0.355621 1.6845389,0.59817 2.62237,0.7 z"
       id="path3848"
       style="opacity:0.5;fill:url(#linearGradient2906);fill-opacity:1;stroke:none" />
    <path
       d="M 12,13.35048 C 12.366027,14.309818 13.343418,15 14.5,15 c 1.156582,0 2.133972,-0.690182 2.5,-1.64952 l -5,0 z"
       id="path3833"
       style="opacity:0.3;fill:url(#radialGradient2908);fill-opacity:1;stroke:none" />
    <path
       d="m 18.4,21.7 c 1.771762,-0.861824 0.926903,-2.775156 0.750001,-4 C 19.9,18.569566 19.52237,21 21.02237,21 c -1,0.355621 -1.684539,0.59817 -2.62237,0.7 z"
       id="path3720"
       style="opacity:0.5;fill:url(#linearGradient2910);fill-opacity:1;stroke:none" />
    <path
       d="m 14.5,2.53125 c -1.666616,0 -2.9513,1.2303173 -2.96875,2.71875 1.39e-4,0.00624 -1.45e-4,0.024997 0,0.03125 0.01647,0.7081029 0.08609,1.5272795 0.5,3.46875 -0.0051,-0.03667 0.09671,0.2041393 0.3125,0.46875 0.232433,0.2850235 0.566603,0.6083312 0.875,0.9375 0.308397,0.329169 0.598847,0.668975 0.84375,0.9375 0.09435,0.103448 0.171956,0.186905 0.25,0.28125 0.166811,0.03524 0.415249,0.03212 0.625,0 0.06182,-0.08397 0.114751,-0.159431 0.1875,-0.25 0.218248,-0.271707 0.473896,-0.575993 0.75,-0.90625 0.276104,-0.3302573 0.569207,-0.6813941 0.78125,-0.96875 0.197562,-0.2677316 0.307312,-0.503144 0.3125,-0.5 0.460701,-1.9997828 0.473735,-2.6695721 0.5,-3.46875 0,-0.010182 1.19e-4,-0.021091 0,-0.03125 C 17.4513,3.7615673 16.166616,2.53125 14.5,2.53125 z"
       id="path3730"
       style="fill:none;stroke:url(#linearGradient2912);stroke-width:1.08445191;stroke-miterlimit:4;stroke-opacity:1;stroke-dasharray:none" />
  </g>
  <g
     transform="matrix(-1,0,0,1,23.5,-29.5)"
     id="g3092">
    <path
       d="m 7.9999994,42 -6.999999,5.5 6.999999,5.5 0,-3 L 18,50 l 0,-5 -10.0000006,0 0,-3 z"
       id="path3212"
       style="fill:url(#linearGradient3096);fill-opacity:1;fill-rule:nonzero;stroke:url(#linearGradient3098);stroke-width:0.99999994;stroke-linecap:round;stroke-linejoin:round;stroke-miterlimit:4;stroke-opacity:1;stroke-dasharray:none;stroke-dashoffset:0;marker:none;visibility:visible;display:inline;overflow:visible" />
    <path
       d="M 7,44.060147 2.5684203,47.50277 7,50.992324 7,49 16.688111,49 16.715523,46 7,46 7,44.060147 z"
       id="path3214"
       style="opacity:0.35400008;fill:none;stroke:url(#linearGradient3100);stroke-width:1;stroke-linecap:butt;stroke-linejoin:miter;stroke-miterlimit:4;stroke-opacity:1;stroke-dasharray:none;stroke-dashoffset:0;marker:none;visibility:visible;display:inline;overflow:visible" />
  </g>
</svg>

<?xml version="1.0" encoding="UTF-8" standalone="no"?>
<!-- Created with Inkscape (http://www.inkscape.org/) -->
<svg
   xmlns:svg="http://www.w3.org/2000/svg"
   xmlns="http://www.w3.org/2000/svg"
   xmlns:xlink="http://www.w3.org/1999/xlink"
   version="1.0"
   width="24"
   height="24"
   id="svg3299">
  <defs
     id="defs3301">
    <linearGradient
       x1="30.00001"
       y1="6.333993"
       x2="30.00001"
       y2="24.913183"
       id="linearGradient2912"
       xlink:href="#linearGradient3341"
       gradientUnits="userSpaceOnUse"
       gradientTransform="matrix(0.5277033,0,0,0.5357324,-1.3310981,-1.4043014)" />
    <linearGradient
       x1="22"
       y1="39"
       x2="17"
       y2="37.4375"
       id="linearGradient2910"
       xlink:href="#linearGradient5060"
       gradientUnits="userSpaceOnUse"
       gradientTransform="matrix(-0.75,0,0,0.4347826,34.15,2.9173914)" />
    <radialGradient
       cx="30"
       cy="33.1875"
       r="4.6875"
       fx="30"
       fy="33.1875"
       id="radialGradient2908"
       xlink:href="#linearGradient5060"
       gradientUnits="userSpaceOnUse"
       gradientTransform="matrix(0.8149192,-3.8844793e-7,1.136461e-7,0.2534027,-9.9475804,6.5902095)" />
    <linearGradient
       x1="22"
       y1="39"
       x2="17"
       y2="37.4375"
       id="linearGradient2906"
       xlink:href="#linearGradient5060"
       gradientUnits="userSpaceOnUse"
       gradientTransform="matrix(0.75,0,0,0.4347826,-5.1276295,2.9173914)" />
    <linearGradient
       x1="30"
       y1="5"
       x2="30"
       y2="44.678879"
       id="linearGradient2904"
       xlink:href="#linearGradient3785"
       gradientUnits="userSpaceOnUse"
       gradientTransform="matrix(0.5277033,0,0,0.5357324,-1.3310981,-1.4043014)" />
    <radialGradient
       cx="26.375898"
       cy="12.31301"
       r="8"
       fx="26.375898"
       fy="12.31301"
       id="radialGradient2902"
       xlink:href="#linearGradient6954"
       gradientUnits="userSpaceOnUse"
       gradientTransform="matrix(0.8655204,-7.102871e-2,6.760608e-2,0.849074,-11.038912,-4.204803)" />
    <linearGradient
       x1="29.996229"
       y1="21.440447"
       x2="29.996229"
       y2="43.531425"
       id="linearGradient2900"
       xlink:href="#linearGradient3341"
       gradientUnits="userSpaceOnUse"
       gradientTransform="matrix(0.5161324,0,0,0.5166711,-0.9839725,-0.491809)" />
    <linearGradient
       id="linearGradient3785">
      <stop
         id="stop3787"
         style="stop-color:#b8b8b8;stop-opacity:1"
         offset="0" />
      <stop
         id="stop3789"
         style="stop-color:#878787;stop-opacity:1"
         offset="1" />
    </linearGradient>
    <linearGradient
       x1="30"
       y1="25.084745"
       x2="30"
       y2="45"
       id="linearGradient2894"
       xlink:href="#linearGradient3785"
       gradientUnits="userSpaceOnUse"
       gradientTransform="matrix(0.5161324,0,0,0.5166711,-0.9839725,-0.491809)" />
    <linearGradient
       id="linearGradient6954">
      <stop
         id="stop6960"
         style="stop-color:#f5f5f5;stop-opacity:1"
         offset="0" />
      <stop
         id="stop6962"
         style="stop-color:#d2d2d2;stop-opacity:1"
         offset="1" />
    </linearGradient>
    <radialGradient
       cx="24.999998"
       cy="28.659998"
       r="16"
       fx="24.999998"
       fy="28.659998"
       id="radialGradient2890"
       xlink:href="#linearGradient6954"
       gradientUnits="userSpaceOnUse"
       gradientTransform="matrix(0.6774237,0,0,0.1928563,-5.0162555,9.9977318)" />
    <linearGradient
       id="linearGradient5060">
      <stop
         id="stop5062"
         style="stop-color:#000000;stop-opacity:1"
         offset="0" />
      <stop
         id="stop5064"
         style="stop-color:#000000;stop-opacity:0"
         offset="1" />
    </linearGradient>
    <radialGradient
       cx="32"
       cy="41.5"
       r="21"
       fx="32"
       fy="41.5"
       id="radialGradient2887"
       xlink:href="#linearGradient5060"
       gradientUnits="userSpaceOnUse"
       gradientTransform="matrix(0.452381,0,0,0.1428571,2.380949e-2,15.071429)" />
    <linearGradient
       id="linearGradient4176">
      <stop
         id="stop4178"
         style="stop-color:#cc7032;stop-opacity:1"
         offset="0" />
      <stop
         id="stop3223"
         style="stop-color:#bb2d13;stop-opacity:1"
         offset="0.73855066" />
      <stop
         id="stop4180"
         style="stop-color:#a87300;stop-opacity:0"
         offset="1" />
    </linearGradient>
    <linearGradient
       x1="52.712177"
       y1="45.089542"
       x2="47.960129"
       y2="25.534338"
       id="linearGradient3098"
       xlink:href="#linearGradient4176"
       gradientUnits="userSpaceOnUse"
       gradientTransform="matrix(0,-0.5241142,-0.5575148,0,32.735771,69.1272)" />
    <linearGradient
       id="linearGradient4168">
      <stop
         id="stop4170"
         style="stop-color:#ecb56c;stop-opacity:1"
         offset="0" />
      <stop
         id="stop4172"
         style="stop-color:#e86225;stop-opacity:1"
         offset="0.7426424" />
      <stop
         id="stop4174"
         style="stop-color:#b07c0b;stop-opacity:0"
         offset="1" />
    </linearGradient>
    <linearGradient
       x1="5.6373582"
       y1="25.809036"
       x2="64.197998"
       y2="25.809036"
       id="linearGradient3096"
       xlink:href="#linearGradient4168"
       gradientUnits="userSpaceOnUse"
       gradientTransform="matrix(0.2807027,0,0,0.2638858,0.4859986,41.434644)" />
    <linearGradient
       id="linearGradient3341">
      <stop
         id="stop3343"
         style="stop-color:#ffffff;stop-opacity:1"
         offset="0" />
      <stop
         id="stop3345"
         style="stop-color:#ffffff;stop-opacity:0"
         offset="1" />
    </linearGradient>
    <linearGradient
       x1="27.399923"
       y1="10.177515"
       x2="10.87553"
       y2="34.629131"
       id="linearGradient3100"
       xlink:href="#linearGradient3341"
       gradientUnits="userSpaceOnUse"
       gradientTransform="matrix(-0.2840733,0,0,0.2513962,14.357652,41.001558)" />
  </defs>
  <g
     id="layer1">
    <g
       transform="translate(-4,-1)"
       id="g3758">
      <path
         d="M 24,21 C 24,22.656854 19.746705,24 14.5,24 C 9.2532949,24 5,22.656854 5,21 C 5,19.343146 9.2532949,18 14.5,18 C 19.746705,18 24,19.343146 24,21 z"
         id="path3823"
         style="opacity:0.8;fill:url(#radialGradient2887);fill-opacity:1;stroke:none" />
      <path
         d="M 12.177403,10.099947 C 12.414933,11.2246 12.547519,12.07532 12.354824,13.199973 C 10.852521,14.44767 7.0103206,15.008323 7.0160793,16.299998 L 6.4999472,20.175034 C 6.4999472,21.459107 10.081692,22.500053 14.5,22.500053 C 18.918307,22.500053 22.500053,21.459107 22.500053,20.175034 L 21.983919,16.299998 C 21.977819,15.1945 18.112926,14.491652 16.629046,13.199973 C 16.502295,12.156125 16.603186,11.143799 16.822595,10.099947 L 12.177403,10.099947 L 12.177403,10.099947 z"
         id="path3766"
         style="fill:url(#radialGradient2890);fill-opacity:1;stroke:url(#linearGradient2894);stroke-width:0.99989432;stroke-miterlimit:4;stroke-dasharray:none;stroke-opacity:1" />
      <path
         d="M 13.21875,11.09375 C 13.30597,11.950461 13.55415,12.894757 13.17057,13.709607 C 12.528016,14.438072 11.575968,14.803433 10.70319,15.182322 C 9.3226847,15.510467 7.7137266,16 7.9252179,16.998373 C 7.7834779,18.061416 7.641739,19.124458 7.5,20.1875 C 7.8063993,20.348113 8.5809439,20.772404 9.125,20.875 C 11.645767,21.541947 14.29285,21.600367 16.879874,21.394516 C 18.391585,21.228304 19.968523,21.041851 21.3125,20.28125 C 21.647936,20.20763 21.419622,19.964839 21.427436,19.626335 C 21.295374,18.605057 21.163312,17.583778 21.03125,16.5625 C 20.443602,16.0598 19.639954,15.808981 18.924859,15.497923 C 17.842077,15.050624 16.673391,14.64492 15.837947,13.789929 C 15.44633,13.100371 15.676474,12.251186 15.730623,11.503439 C 15.990304,10.975089 15.507224,11.101536 15.177691,11.09375 C 14.52471,11.09375 13.87173,11.09375 13.21875,11.09375 z"
         id="path3742"
         style="fill:none;stroke:url(#linearGradient2900);stroke-width:0.99989432;stroke-miterlimit:4;stroke-opacity:1" />
      <path
         d="M 14.5,1.5422262 C 12.314182,1.5422262 10.542226,3.2212162 10.542226,5.2923534 C 10.559356,6.058841 10.623776,6.9693996 11.069927,9.0424804 C 11.333779,9.846079 13.68721,11.98901 13.708444,12.256875 C 14.220145,12.52474 15.027702,12.52474 15.555408,12.256875 C 15.555408,11.98901 17.666221,9.846079 17.930072,9.0424804 C 18.432118,6.8879308 18.430845,6.0959521 18.457774,5.2923534 C 18.457774,3.2212162 16.685818,1.5422262 14.5,1.5422262 L 14.5,1.5422262 z"
         id="path3764"
         style="fill:url(#radialGradient2902);fill-opacity:1;stroke:url(#linearGradient2904);stroke-width:1.08445191;stroke-miterlimit:4;stroke-dasharray:none;stroke-opacity:1" />
      <path
         d="M 10.62237,21.7 C 8.8506083,20.838176 9.6954668,18.924844 9.8723695,17.7 C 9.1223696,18.569566 9.5000001,21 8,21 C 9,21.355621 9.6845389,21.59817 10.62237,21.7 L 10.62237,21.7 z"
         id="path3848"
         style="opacity:0.5;fill:url(#linearGradient2906);fill-opacity:1;stroke:none" />
      <path
         d="M 12,13.35048 C 12.366027,14.309818 13.343418,15 14.5,15 C 15.656582,15 16.633972,14.309818 17,13.35048 L 12,13.35048 L 12,13.35048 z"
         id="path3833"
         style="opacity:0.3;fill:url(#radialGradient2908);fill-opacity:1;stroke:none" />
      <path
         d="M 18.4,21.7 C 20.171762,20.838176 19.326903,18.924844 19.150001,17.7 C 19.9,18.569566 19.52237,21 21.02237,21 C 20.02237,21.355621 19.337831,21.59817 18.4,21.7 z"
         id="path3720"
         style="opacity:0.5;fill:url(#linearGradient2910);fill-opacity:1;stroke:none" />
      <path
         d="M 14.5,2.53125 C 12.833384,2.53125 11.5487,3.7615673 11.53125,5.25 C 11.531389,5.25624 11.531105,5.274997 11.53125,5.28125 C 11.54772,5.9893529 11.61734,6.8085295 12.03125,8.75 C 12.02615,8.71333 12.12796,8.9541393 12.34375,9.21875 C 12.576183,9.5037735 12.910353,9.8270812 13.21875,10.15625 C 13.527147,10.485419 13.817597,10.825225 14.0625,11.09375 C 14.15685,11.197198 14.234456,11.280655 14.3125,11.375 C 14.479311,11.41024 14.727749,11.40712 14.9375,11.375 C 14.99932,11.29103 15.052251,11.215569 15.125,11.125 C 15.343248,10.853293 15.598896,10.549007 15.875,10.21875 C 16.151104,9.8884927 16.444207,9.5373559 16.65625,9.25 C 16.853812,8.9822684 16.963562,8.746856 16.96875,8.75 C 17.429451,6.7502172 17.442485,6.0804279 17.46875,5.28125 C 17.46875,5.271068 17.468869,5.260159 17.46875,5.25 C 17.4513,3.7615673 16.166616,2.53125 14.5,2.53125 z"
         id="path3730"
         style="fill:none;stroke:url(#linearGradient2912);stroke-width:1.08445191;stroke-miterlimit:4;stroke-dasharray:none;stroke-opacity:1" />
    </g>
    <path
       d="M 7.9999994,42 L 1.0000004,47.5 L 7.9999994,53 L 7.9999994,50 L 18,50 L 18,45 L 7.9999994,45 L 7.9999994,42 L 7.9999994,42 z"
       transform="matrix(-1,0,0,1,23.5,-29.5)"
       id="path3212"
       style="fill:url(#linearGradient3096);fill-opacity:1;fill-rule:nonzero;stroke:url(#linearGradient3098);stroke-width:0.99999994;stroke-linecap:round;stroke-linejoin:round;marker:none;stroke-miterlimit:4;stroke-dasharray:none;stroke-dashoffset:0;stroke-opacity:1;visibility:visible;display:inline;overflow:visible" />
    <path
       d="M 7,44.060147 L 2.5684203,47.50277 L 7,50.992324 L 7,49 L 16.688111,49 L 16.715523,46 L 7,46 L 7,44.060147 z"
       transform="matrix(-1,0,0,1,23.5,-29.5)"
       id="path3214"
       style="opacity:0.35400008;fill:none;stroke:url(#linearGradient3100);stroke-width:1;stroke-linecap:butt;stroke-linejoin:miter;marker:none;stroke-miterlimit:4;stroke-dasharray:none;stroke-dashoffset:0;stroke-opacity:1;visibility:visible;display:inline;overflow:visible" />
  </g>
</svg>
